!!!!SEGMENT: Ver3002-Amor_se_dhor_in_hor_la_doglia.krn
!!!id: Ver3002
!!!AGN: Madrigal
!!!voices: 4
!!!COM: Philippe Verdelot
!!!OTL: Amor se d'hor in hor la doglia
**kern	**kern	**kern	**kern
*part4	*part3	*part2	*part1
*staff4	*staff3	*staff2	*staff1
*I"Bassus	*I"Tenor	*I"Altus	*I"Superius
*I'B	*I'T	*I'A	*I'S
*clefF4	*clefGv2	*clefGv2	*clefG2
*k[]	*k[]	*k[]	*k[]
*C:	*C:	*C:	*C:
*M2/1	*M2/1	*M2/1	*M2/1
*met(C|)	*met(C|)	*met(C|)	*met(C|)
=1	=1	=1	=1
1D	1d	1A	1d
2.D	[1f	1d	[1a
4E	.	.	.
=2	=2	=2	=2
2F	2f]	2.c	2a]
2C	2e	.	2g
.	.	4B	.
2D	2.d	2A	2.f
2D	.	2F	.
.	4c	.	4e
=3	=3	=3	=3
1GG	1B	1G	1d
1FF	1c	2C	1a
.	.	2F	.
=4	=4	=4	=4
2GG	2B	2D	2g
2AA	1A	2C	4f
.	.	.	4e
1BB-i	.	1D	1d
.	2G	.	.
=5	=5	=5	=5
1AA	1A	1E	1c
2r	2r	2r	2r
2AA	2c	2A	2e
=6	=6	=6	=6
2C	2c	2G	2e
2C	2c	2G	2e
2GG	2B	2G	2d
2AA	2A	2E	2c
=7	=7	=7	=7
2GG	2B	1G	1d
2GG	2G	.	.
1D	2A	2F	2d
.	2B	2F	2d
=8	=8	=8	=8
2C	2.c	2G	2e
2C	.	2G	2g
.	4B	.	.
2D	1A	2d	2g
2D	.	2d	2f
=9	=9	=9	=9
2GG	2G	2B	2g
2GG	2G	2B	2g
1AA	[1c	1A	[1e
=10	=10	=10	=10
1C	1c]	1.G	1e]
2.GG	2.B	.	2.d
.	.	2G	.
4GG	4A	.	4c
=11	=11	=11	=11
2GG	2.G	2D	2B
2GG	.	2D	2B
.	4F	.	.
2AA	2E	1A	2c
2D	2F	.	[2d
=12	=12	=12	=12
1GG	2.G	1B	4d]
.	.	.	4c
.	.	.	4d
.	4F	.	4B
2AA	2E	2A	2c
2BB	2D	2G	[2d
=13	=13	=13	=13
1AA	1E	1A	2d]
.	.	.	2c#i
2r	2D	1F	1d
2A	2D	.	.
=14	=14	=14	=14
2G	2r	2r	1d
2F	2d	2A	.
2.E	2.c	2.G	1r
4D	4B	4F	.
=15	=15	=15	=15
2C	2A	2E	1r
2BB	2G	2D	.
2AA	2A	1E	2r
2AA	2A	.	2a
=16	=16	=16	=16
0r	2r	2E	2g
.	2d	2D	2f
.	2.c	2.A	2.e
.	4B	4B	4d
=17	=17	=17	=17
0r	2A	2c	2c
.	2G	2d	2B
.	2A	2c	2A
.	2A	2c	2A
=18	=18	=18	=18
1AA	2r	2r	2r
.	2c	2A	2e
2.GG	4B	[1d	[1g
.	4A	.	.
.	4B	.	.
4AA	4c	.	.
=19	=19	=19	=19
2BB	4d	2d]	2g]
.	4B	.	.
2C	2.e	2c	2g
1D	.	1A	1f
.	4d	.	.
.	[2d	.	.
=20	=20	=20	=20
1AA	2d]	1A	1e
.	2c#i	.	.
1D	1d	1A	1d
=21	=21	=21	=21
2D	2A	2F	2d
2D	2f	2A	2d
2AA	2e	2A	2c
2BB	2d	2D	2d
=22	=22	=22	=22
2AA	2d	2A	2e
2AA	2c	2A	2e
1D	1d	1A	1f
=23	=23	=23	=23
1AA	1c	1A	1e
1AA	1A	1c	2r
.	.	.	2e
=24	=24	=24	=24
1.GG	2.B	2.d	2.g
.	4A	4c	4f
.	2.G	1B	2e
2GG	.	.	2d
.	4F	.	.
=25	=25	=25	=25
2AA	2E	2A	2c
2BB	2D	2G	1d
1AA	1E	1A	.
.	.	.	2c#i
=26	=26	=26	=26
00Dl	00Dl	00Al	00dl
==	==	==	==
*-	*-	*-	*-
!!!system-decoration: [*]
!!!RDF**kern: i = editorial accidental
!!!RDF**kern: l = terminal long
!!!ENC: Benjamin Ory
!!!END: 2024/1/23
!!!EED: Benjamin Ory
!!!EEV: 2024/01/23
!!!YEC: Copyright 2024 Benjamin Ory, All Rights Reserved
!!!ONB: Translated from MusicXML on 2024/01/23
